MB--CircleCanvas--WhiteOverBlue.svg

<svg height="600" viewBox="0 0 600 600" width="600" xmlns="http://www.w3.org/2000/svg"><g fill="none" fill-rule="evenodd"><circle cx="300" cy="300" fill="#1c68f3" r="300"/><path d="m480 200h-360v-44c0-19.882251 16.117749-36 36-36h288c19.882251 0 36 16.117749 36 36zm0 30v100h-60-230.995189-21.912465c13.660721 60.676586 67.877536 106 132.680202 106 53.574931 0 99.914449-30.97848 122.083115-76h58.144337v84c0 19.882251-16.117749 36-36 36h-288c-19.882251 0-36-16.117749-36-36v-214zm-267.782539 130 175.110171.000005c-19.09162 27.913564-51.184149 46.231598-87.555084 46.231598s-68.463464-18.318034-87.555084-46.231598zm-44.65035-58h30.686887c3.374227-10.445056 13.177839-18 24.746002-18s21.371775 7.554944 24.746002 18h30.686887c-3.881837-27.138353-27.221114-48-55.432889-48s-51.551052 20.861647-55.432889 48zm154 0h30.686887c3.374227-10.445056 13.177839-18 24.746002-18s21.371775 7.554944 24.746002 18h30.686887c-3.881837-27.138353-27.221114-48-55.432889-48s-51.551052 20.861647-55.432889 48z" fill="#fff"/></g></svg>

<?xml version="1.0" encoding="UTF-8"?>
<svg width="600px" height="600px" viewBox="0 0 600 600" version="1.1" xmlns="http://www.w3.org/2000/svg" xmlns:xlink="http://www.w3.org/1999/xlink">
    <!-- Generator: Sketch 56.3 (81716) - https://sketch.com -->
    <title>MB--CircleCanvas--WhiteOverBlue</title>
    <desc>Created with Sketch.</desc>
    <g id="MB--CircleCanvas--WhiteOverBlue" stroke="none" stroke-width="1" fill="none" fill-rule="evenodd">
        <circle id="Oval" fill="#1C68F3" cx="300" cy="300" r="300"></circle>
        <path d="M480,200 L120,200 L120,156 C120,136.117749 136.117749,120 156,120 L444,120 C463.882251,120 480,136.117749 480,156 L480,200 Z M480,230 L480,330 L420,330 L189.004811,330 L167.092346,330 C180.753067,390.676586 234.969882,436 299.772548,436 C353.347479,436 399.686997,405.02152 421.855663,360 L480,360 L480,444 C480,463.882251 463.882251,480 444,480 L156,480 C136.117749,480 120,463.882251 120,444 L120,230 L480,230 Z M212.217461,360 L387.327632,360.000005 C368.236012,387.913569 336.143483,406.231603 299.772548,406.231603 C263.401613,406.231603 231.309084,387.913569 212.217464,360.000005 Z M167.567111,302 L198.253998,302 C201.628225,291.554944 211.431837,284 223,284 C234.568163,284 244.371775,291.554944 247.746002,302 L278.432889,302 C274.551052,274.861647 251.211775,254 223,254 C194.788225,254 171.448948,274.861647 167.567111,302 Z M321.567111,302 L352.253998,302 C355.628225,291.554944 365.431837,284 377,284 C388.568163,284 398.371775,291.554944 401.746002,302 L432.432889,302 C428.551052,274.861647 405.211775,254 377,254 C348.788225,254 325.448948,274.861647 321.567111,302 Z" id="maskbook-icon--book--black" fill="#FFFFFF"></path>
    </g>
</svg>
